src/assets/bold/lm-page-facing-bold.svg

<svg width="24" height="24" viewBox="0 0 24 24" fill="none" xmlns="http://www.w3.org/2000/svg" fill="currentColor">
<path d="M14.625 7.3125C14.3143 7.3125 14.0625 7.56434 14.0625 7.875C14.0625 8.18566 14.3143 8.4375 14.625 8.4375H18C18.3107 8.4375 18.5625 8.18566 18.5625 7.875C18.5625 7.56434 18.3107 7.3125 18 7.3125H14.625Z" fill="black"/>
<path d="M14.625 11.4375C14.3143 11.4375 14.0625 11.6893 14.0625 12C14.0625 12.3107 14.3143 12.5625 14.625 12.5625H18C18.3107 12.5625 18.5625 12.3107 18.5625 12C18.5625 11.6893 18.3107 11.4375 18 11.4375H14.625Z" fill="black"/>
<path fill-rule="evenodd" clip-rule="evenodd" d="M19.5 3.75C20.7426 3.75 21.75 4.75736 21.75 6V18C21.75 19.2426 20.7426 20.25 19.5 20.25H4.5C3.25736 20.25 2.25 19.2426 2.25 18V6C2.25 4.75736 3.25736 3.75 4.5 3.75H19.5ZM12.5625 5.25H19.5C19.9142 5.25 20.25 5.58579 20.25 6V18C20.25 18.4142 19.9142 18.75 19.5 18.75H12.5625V5.25ZM11.4375 18.75H4.5C4.08579 18.75 3.75 18.4142 3.75 18V6C3.75 5.58579 4.08579 5.25 4.5 5.25H11.4375V18.75Z" fill="black"/>
</svg>

<svg xmlns="http://www.w3.org/2000/svg" width="24" height="24" fill="currentColor" viewBox="0 0 24 24">
  <path d="M14.625 7.313a.562.562 0 1 0 0 1.125H18a.562.562 0 1 0 0-1.126h-3.375Zm0 4.125a.562.562 0 1 0 0 1.124H18a.562.562 0 1 0 0-1.124h-3.375Z"/>
  <path fill-rule="evenodd" d="M19.5 3.75A2.25 2.25 0 0 1 21.75 6v12a2.25 2.25 0 0 1-2.25 2.25h-15A2.25 2.25 0 0 1 2.25 18V6A2.25 2.25 0 0 1 4.5 3.75h15Zm-6.938 1.5H19.5a.75.75 0 0 1 .75.75v12a.75.75 0 0 1-.75.75h-6.938V5.25Zm-1.124 13.5H4.5a.75.75 0 0 1-.75-.75V6a.75.75 0 0 1 .75-.75h6.938v13.5Z" clip-rule="evenodd"/>
</svg>
